X: 3332
T: Langengelsk
B:[[Notböcker/Melodier til gamle danske Almuedanse for Violin solo]]
O:Danmark
Z:Søren Bak Vestergaard
M: 2/4
L: 1/8
K: Bb
(BA)|B2 B,2|B,2 FE|DF B2|DF Bd|c2 C2|C2 (ec)|AF Ac|B2:|\
|:(cd)|e2 c2|c2 (=Bc)|d2 _B2|B2 (AB)|cBAc|B2 (df)|gfga|b2:|
(:musicend:)
(:music:)
